!!!COM: Gaspar van Weerbeke
!!!CDT: ~1450-~1517
!!!OPR: Missa Princesse d'amourettes
!!!OTL: Agnus Dei
!!!OMV: 5
!!!AGN: Mass
!!!SCT: Gas0103e
!!!SCA: Gas0103e
!!!voices: 4
**kern	**text	**kern	**text	**kern	**text	**kern	**text
*part4	*part4	*part3	*part3	*part2	*part2	*part1	*part1
*staff4	*staff4	*staff3	*staff3	*staff2	*staff2	*staff1	*staff1
*I"Bassus	*	*I"Tenor	*	*I"Altus	*	*I"Superius	*
*I'B	*	*I'T	*	*I'A	*	*I'S	*
*>[A,B,C]	*>[A,B,C]	*>[A,B,C]	*>[A,B,C]	*>[A,B,C]	*>[A,B,C]	*>[A,B,C]	*>[A,B,C]
*>Agnus1[A]	*>Agnus1[A]	*>Agnus1[A]	*>Agnus1[A]	*>Agnus1[A]	*>Agnus1[A]	*>Agnus1[A]	*>Agnus1[A]
*>Agnus2[B]	*>Agnus2[B]	*>Agnus2[B]	*>Agnus2[B]	*>Agnus2[B]	*>Agnus2[B]	*>Agnus2[B]	*>Agnus2[B]
*>Agnus3[C]	*>Agnus3[C]	*>Agnus3[C]	*>Agnus3[C]	*>Agnus3[C]	*>Agnus3[C]	*>Agnus3[C]	*>Agnus3[C]
*>A	*>A	*>A	*>A	*>A	*>A	*>A	*>A
*clefF4	*	*clefGv2	*	*clefGv2	*	*clefG2	*
*k[]	*	*k[]	*	*k[]	*	*k[]	*
*M3/2	*	*M3/2	*	*M3/2	*	*M3/2	*
*met(O)	*	*met(O)	*	*met(O)	*	*met(O)	*
!!section: Agnus I
=1	=1	=1	=1	=1	=1	=1	=1
*	*	*	*	*	*	*col	*
1.r	.	1.r	.	1G	A-	[1.g	A-
.	.	.	.	4.G	-gnus	.	.
.	.	.	.	8A	.	.	.
=2	=2	=2	=2	=2	=2	=2	=2
1.r	.	1.r	.	2B	.	2g]	.
*	*	*	*	*	*	*Xcol	*
.	.	.	.	2.c	De-	4.e	-gnus
.	.	.	.	.	.	8f	.
.	.	.	.	.	.	8gL	.
.	.	.	.	.	.	8aJ	.
.	.	.	.	4B	.	[4g	De-
=3	=3	=3	=3	=3	=3	=3	=3
1.r	.	1.r	.	2c	.	4g]	.
.	.	.	.	.	.	4e	.
.	.	.	.	2.d	.	4.f	.
.	.	.	.	.	.	8g	.
.	.	.	.	.	.	8aL	.
.	.	.	.	.	.	8b-jJ	.
.	.	.	.	4c	.	[4a	.
=4	=4	=4	=4	=4	=4	=4	=4
1.r	.	1.r	.	2B	.	4a]	.
.	.	.	.	.	.	4g	.
.	.	.	.	4A	.	4f	.
.	.	.	.	4G	.	4.e	.
.	.	.	.	4A	.	.	.
.	.	.	.	.	.	8d	.
.	.	.	.	4F	.	[4d	.
!!LO:LB:g=original
=5	=5	=5	=5	=5	=5	=5	=5
1.r	.	1.r	.	2E	-i,	4d]	.
.	.	.	.	.	.	4c	.
*	*	*	*	*	*edit	*	*
.	.	.	.	4.D	A-	4B	.
.	.	.	.	.	.	2d	.
.	.	.	.	8E	.	.	.
.	.	.	.	4F	.	.	.
.	.	.	.	[4G	.	4B	.
=6	=6	=6	=6	=6	=6	=6	=6
1.r	.	1.r	.	4G]	.	2A	-i,
.	.	.	.	4c	.	.	.
.	.	.	.	4B	.	4r	.
*	*	*	*	*	*	*	*edit
.	.	.	.	4d	.	4f	A-
.	.	.	.	4.c	.	4e	.
.	.	.	.	.	.	[4g	.
.	.	.	.	8B	.	.	.
=7	=7	=7	=7	=7	=7	=7	=7
1.r	.	1.r	.	4G	-gnus	4g]	.
.	.	.	.	2c	De-	4e	.
.	.	.	.	.	.	2d	-gnus
.	.	.	.	4f	.	.	.
.	.	.	.	4e	.	4r	.
.	.	.	.	4a	.	4cc	De-
=8	=8	=8	=8	=8	=8	=8	=8
1.r	.	1.r	.	4.g	.	4b	.
.	.	.	.	.	.	2dd	.
.	.	.	.	8f	.	.	.
.	.	.	.	4d	-i,	.	.
.	.	.	.	2g	De-	4b	.
.	.	.	.	.	.	2a	-i,
.	.	.	.	4f	.	.	.
!!LO:LB:g=original
=9	=9	=9	=9	=9	=9	=9	=9
1.GG	A-	1.G	A-	4e	.	4.g	De-
.	.	.	.	2g	.	.	.
.	.	.	.	.	.	8a	.
.	.	.	.	.	.	4b	.
.	.	.	.	4e	.	2cc	.
.	.	.	.	2d	.	.	.
.	.	.	.	.	.	4b	.
=10	=10	=10	=10	=10	=10	=10	=10
2C	-gnus	4.G	-gnus	2c	-i,	2cc	-i,
.	.	8A	.	.	.	.	.
2r	.	4B	.	4G	qui	4r	.
*	*	*	*	*	*	*	*Xedit
.	.	2c	De-	4E	.	4g	qui
2D	De-	.	.	2F	tol-	4a	.
.	.	4B	.	.	.	4b	.
=11	=11	=11	=11	=11	=11	=11	=11
2C	-i,	2.c	.	2G	-lis,	4.e	tol-
.	.	.	.	.	.	8f	.
*	*edit	*	*	*	*	*	*
4E	qui	.	.	2r	.	4g	.
4F	.	4A	.	.	.	4a	.
2G	.	2B	.	2r	.	4.d	.
.	.	.	.	.	.	8e	.
=12	=12	=12	=12	=12	=12	=12	=12
4D	tol-	1.A	-i,	2d	tol-	8fL	.
.	.	.	.	.	.	8gJ	.
4.F	.	.	.	.	.	4.a	-lis
.	.	.	.	2c	-lis	.	.
8E	.	.	.	.	.	8g	.
4C	.	.	.	.	.	4e	.
2D	.	.	.	4r	.	2f	pec-
.	.	.	.	4A	pec-	.	.
!!LO:LB:g=original
=13	=13	=13	=13	=13	=13	=13	=13
1GG	-lis,	1.r	.	2B	-ca-	2g	-ca-
.	.	.	.	2G	.	4d	.
.	.	.	.	.	.	2e	.
2r	.	.	.	4.A	.	.	.
.	.	.	.	.	.	4c	.
.	.	.	.	8G	.	.	.
=14	=14	=14	=14	=14	=14	=14	=14
2r	.	2r	.	4F	.	2d	.
.	.	.	.	2E	.	.	.
2r	.	2r	.	.	.	4c	.
.	.	.	.	4D	.	4B	.
4r	.	4r	.	2F	-ta	2A	.
*	*	*	*edit	*	*	*	*
4F	pec-	4A	pec-	.	.	.	.
=15	=15	=15	=15	=15	=15	=15	=15
4G	.	2B	.	2r	.	4G	-ta
*	*	*	*	*	*	*	*edit
4.E	-ca-	.	.	.	.	4.g	mun-
.	.	2.G	-ca-	4r	.	.	.
8D	.	.	.	.	.	8f	.
4C	.	.	.	4c	mun-	4e	.
4BB	.	.	.	4d	.	4d	.
4AA	.	4A	.	[4e	.	[4c	.
=16	=16	=16	=16	=16	=16	=16	=16
4C	.	4G	.	8e]L	.	8c]L	.
.	.	.	.	8dJ	.	8BJ	.
4D	.	4F	.	2d	.	4A	-di,
2AA	-ta,	2E	.	.	.	4r	.
.	.	.	.	4c	.	4cc	pec-
2r	.	2D	-ta	2d	-di,	4b	.
.	.	.	.	.	.	[4a	-ca-
!!LO:PB:g=original
=17	=17	=17	=17	=17	=17	=17	=17
2F	pec-	1.r	.	4r	.	4a]	.
.	.	.	.	4A	mun-	4f	.
2E	.	.	.	4B	.	2g	-ta
.	.	.	.	4c	.	.	.
*	*	*	*	*	*	*	*Xedit
[2D	-ca-	.	.	4.d	.	[2f	mun-
.	.	.	.	8c	.	.	.
=18	=18	=18	=18	=18	=18	=18	=18
2D]	.	4.A	mun-	4A	.	4f]	.
.	.	.	.	4D	-di,	2a	.
.	.	8B	.	.	.	.	.
4AA	.	4c	.	4r	.	.	.
4BB	.	2d	.	4D	mun-	4f	.
2AA	.	.	.	2A	.	2e	-di:
.	.	4c#i	.	.	.	.	.
=19	=19	=19	=19	=19	=19	=19	=19
2D	-ta	1d	-di:	4.F	.	1.r	.
.	.	.	.	8G	.	.	.
4r	.	.	.	8AL	.	.	.
.	.	.	.	8BJ	.	.	.
4D	mun-	.	.	4.A	.	.	.
4C	.	4r	.	.	.	.	.
.	.	.	.	16GLL	.	.	.
.	.	.	.	16FJJ	.	.	.
4BB	.	4d	mi-	4G	.	.	.
=20	=20	=20	=20	=20	=20	=20	=20
4AA	.	4c	.	4C	-di:	4r	.
*	*	*	*	*	*Xedit	*	*
4GG	.	4B	.	2G	mi-	4.d	mi-
2D	-di:	2A	-se-	.	.	.	.
.	.	.	.	.	.	8c	.
.	.	.	.	4F	.	4A	.
4r	.	[2d	.	4.G	.	4B	.
[4GG	mi-	.	.	.	.	4G	-se-
.	.	.	.	8A	.	.	.
!!LO:LB:g=original
=21	=21	=21	=21	=21	=21	=21	=21
4GG]	.	4d]	.	4B	-se-	4g	-re-
4AA	.	4c	.	4c	.	4e	.
4BB	.	4B	.	4d	.	4d	.
2C	-se-	4G	.	2e	-re-	2g	.
.	.	2A	-re-	.	.	.	.
4D	.	.	.	4d	.	4f#i	.
=22	=22	=22	=22	=22	=22	=22	=22
4.E	-re-	2G	-re,	4.B	.	4.g	-re,
8F	.	.	.	8A	.	8f	.
4G	.	2r	.	4B	.	4d	.
4A	.	.	.	4c	.	4c	.
*	*	*	*Xedit	*	*	*	*edit
2B	-re	2G	mi-	2d	-re	[2g	mi-
=23	=23	=23	=23	=23	=23	=23	=23
*	*	*	*	*	*edit	*	*
4E	no-	1c	-se-	8eL	no-	4g]	.
.	.	.	.	8d	.	.	.
2F	.	.	.	8c	.	2a	-se-
.	.	.	.	8BJ	.	.	.
.	.	.	.	2A	-bis,	.	.
8EL	.	.	.	.	.	8gL	.
8DJ	.	.	.	.	.	8fJ	.
2C	.	2c	-re-	4r	.	4.e	-re-
.	.	.	.	[4G	mi-	.	.
.	.	.	.	.	.	8f	.
=24	=24	=24	=24	=24	=24	=24	=24
2GG	-bis,	2.d	.	2.G]	.	8gL	.
.	.	.	.	.	.	8aJ	.
.	.	.	.	.	.	4.b	.
2r	.	.	.	.	.	.	.
.	.	.	.	.	.	8a	.
.	.	4c	.	4A	.	2a	.
2r	.	2B	.	2E	-se-	.	.
.	.	.	.	.	.	4g#i	.
!!LO:LB:g=original
=25	=25	=25	=25	=25	=25	=25	=25
4r	.	2A	-re	2F	-re-	2a	-re
*	*Xedit	*	*	*	*	*	*
4D	mi-	.	.	.	.	.	.
4BB	.	2B	.	4.G	.	4r	.
4GG	-se-	.	.	.	.	4d	no-
.	.	.	.	8F	.	.	.
*	*	*	*edit	*	*	*	*
4.C	-re-	[2G	no-	4G	.	4.e	.
.	.	.	.	[4E	-re	.	.
8D	.	.	.	.	.	8f	.
=26	=26	=26	=26	=26	=26	=26	=26
4E	.	4G]	.	4E]	.	4g	.
4AA	.	2A	.	4.e	no-	4e	.
2D	-re	.	.	.	.	4f	.
.	.	.	.	8d	.	.	.
.	.	4F	.	2d	.	2a	.
2r	.	2E	.	.	.	.	.
.	.	.	.	4c	.	4g	.
=27	=27	=27	=27	=27	=27	=27	=27
*	*edit	*	*	*	*	*	*
2BB	no-	2D	-bis,	4d	.	4f	.
.	.	.	.	4B	.	4d	.
2AA	-bis,	4r	.	2c	-bis,	2e	-bis,
*	*	*	*Xedit	*	*	*	*
.	.	4A	no-	.	.	.	.
*	*	*	*	*	*	*	*Xedit
4r	.	4.B	.	4r	.	4.d	no-
*	*Xedit	*	*	*	*Xedit	*	*
[4GG	no-	.	.	[4d	no-	.	.
.	.	8A	.	.	.	8c	.
=28	=28	=28	=28	=28	=28	=28	=28
4GG]	.	4G	.	4d]	.	4B	.
4D	.	4F	.	4f	.	4A	.
*	*	*lig	*	*	*	*	*
2E	.	2G	.	4e	.	4G	.
.	.	.	.	4c	.	2g	.
2D	.	2A	.	2d	.	.	.
*	*	*Xlig	*	*	*	*	*
.	.	.	.	.	.	4f#i	.
=29	=29	=29	=29	=29	=29	=29	=29
1.GGl	-bis.	1.Gl	-bis.	1.Bl 1.dl	-bis.	1.gl	-bis.
!!LO:LB:g=original
=30||	=30||	=30||	=30||	=30||	=30||	=30||	=30||
*>B	*>B	*>B	*>B	*>B	*>B	*>B	*>B
*M2/2	*	*M2/2	*	*M2/2	*	*M2/2	*
*met(C|)	*	*met(C|)	*	*met(C|)	*	*met(C|)	*
!!section: Agnus II
1r	.	1r	.	1r	.	2g	A-
.	.	.	.	.	.	2g	-gnus
=31	=31	=31	=31	=31	=31	=31	=31
2r	.	1r	.	1r	.	4f	.
.	.	.	.	.	.	2g	De-
2G	A-	.	.	.	.	.	.
.	.	.	.	.	.	8fL	.
.	.	.	.	.	.	8eJ	.
=32	=32	=32	=32	=32	=32	=32	=32
2G	-gnus	1r	.	1r	.	2d	-i,
4F	.	.	.	.	.	4r	.
*	*	*	*	*	*	*	*edit
[4G	De-	.	.	.	.	4d	A-
=33	=33	=33	=33	=33	=33	=33	=33
4G]	.	1r	.	1r	.	4e	.
8FL	.	.	.	.	.	4g	.
8EJ	.	.	.	.	.	.	.
2D	-i,	.	.	.	.	4f	.
.	.	.	.	.	.	[4a	.
=34	=34	=34	=34	=34	=34	=34	=34
4r	.	1r	.	1r	.	4a]	.
*	*edit	*	*	*	*	*	*
4D	A-	.	.	.	.	8gL	.
.	.	.	.	.	.	8fJ	.
4E	.	.	.	.	.	4g	.
4G	.	.	.	.	.	4e	.
=35	=35	=35	=35	=35	=35	=35	=35
4F	.	1r	.	1r	.	4d	.
2A	.	.	.	.	.	2f	.
8GL	.	.	.	.	.	8eL	.
8FJ	.	.	.	.	.	8dJ	.
!!LO:PB:g=original
=36	=36	=36	=36	=36	=36	=36	=36
4G	.	1r	.	1r	.	4e	.
4E	.	.	.	.	.	4c	.
4D	.	.	.	.	.	2d	-gnus
[4F	.	.	.	.	.	.	.
=37	=37	=37	=37	=37	=37	=37	=37
4F]	.	1r	.	1r	.	4r	.
8EL	.	.	.	.	.	4f	De-
8DJ	.	.	.	.	.	.	.
4E	.	.	.	.	.	4g	.
4C	.	.	.	.	.	[4a	.
=38	=38	=38	=38	=38	=38	=38	=38
2D	-gnus	1r	.	1r	.	4a]	.
.	.	.	.	.	.	4b-i	.
4r	.	.	.	.	.	4a	.
4F	De-	.	.	.	.	8gL	.
.	.	.	.	.	.	8fJ	.
=39	=39	=39	=39	=39	=39	=39	=39
4G	.	1r	.	1r	.	4e	.
2A	.	.	.	.	.	2f	.
4B-i	.	.	.	.	.	4g	.
=40	=40	=40	=40	=40	=40	=40	=40
4A	.	1r	.	1r	.	4f	.
8GL	.	.	.	.	.	8eL	.
8FJ	.	.	.	.	.	8dJ	.
2E	-i,	.	.	.	.	2c#i	.
=41	=41	=41	=41	=41	=41	=41	=41
4.D	A-	1r	.	4r	.	2d	-i,
.	.	.	.	2d	A-	.	.
8E	.	.	.	.	.	.	.
4F	.	.	.	.	.	2r	.
4G	.	.	.	4B	.	.	.
!!LO:LB:g=original
=42	=42	=42	=42	=42	=42	=42	=42
4A	-gnus	1r	.	4c	.	1r	.
2B	De-	.	.	2d	.	.	.
4c	.	.	.	4e	.	.	.
=43	=43	=43	=43	=43	=43	=43	=43
4B	.	1r	.	4d	.	1r	.
8AL	.	.	.	8cL	.	.	.
8GJ	.	.	.	8BJ	.	.	.
4F	.	.	.	4A	-gnus	.	.
[4G	.	.	.	[4B	De-	.	.
=44	=44	=44	=44	=44	=44	=44	=44
4G]	.	1r	.	4B]	.	1r	.
4A	.	.	.	4c	.	.	.
4G	.	.	.	4B	.	.	.
8FL	.	.	.	8AL	.	.	.
8EJ	.	.	.	8GJ	.	.	.
=45	=45	=45	=45	=45	=45	=45	=45
4D	.	1r	.	2F	.	1r	.
8CL	.	.	.	.	.	.	.
8BBJ	.	.	.	.	.	.	.
2AA	-i,	.	.	2F	-i,	.	.
=46	=46	=46	=46	=46	=46	=46	=46
4.GG	qui	1r	.	2r	.	1r	.
8AA	.	.	.	.	.	.	.
*	*	*	*	*	*edit	*	*
8BBL	.	.	.	4.G	qui	.	.
8CJ	.	.	.	.	.	.	.
4BB	.	.	.	.	.	.	.
.	.	.	.	8A	.	.	.
=47	=47	=47	=47	=47	=47	=47	=47
4GG	.	1r	.	8BL	.	1r	.
.	.	.	.	8cJ	.	.	.
2G	tol-	.	.	2B	.	.	.
8FL	.	.	.	8AL	.	.	.
8EJ	.	.	.	8GJ	.	.	.
!!LO:LB:g=original
=48	=48	=48	=48	=48	=48	=48	=48
2A	.	1r	.	2c	tol-	2r	.
2G	-lis	.	.	4.B	-lis	4.g	qui
.	.	.	.	8c	.	8a	.
=49	=49	=49	=49	=49	=49	=49	=49
1r	.	1r	.	2d	.	8bL	.
.	.	.	.	.	.	8ccJ	.
.	.	.	.	.	.	2b	.
.	.	.	.	4.G	pec-	.	.
.	.	.	.	.	.	8aL	.
.	.	.	.	8F	.	8gJ	.
=50	=50	=50	=50	=50	=50	=50	=50
1r	.	1r	.	8EL	.	2cc	tol-
.	.	.	.	8DJ	.	.	.
.	.	.	.	4E	.	.	.
.	.	.	.	4D	.	4b	.
.	.	.	.	4E	.	4cc	.
=51	=51	=51	=51	=51	=51	=51	=51
1r	.	1r	.	4D	.	2dd	-lis
.	.	.	.	4.G	-ca-	.	.
.	.	.	.	.	.	4.g	pec-
.	.	.	.	8A	.	.	.
.	.	.	.	4B	.	.	.
.	.	.	.	.	.	8f	.
=52	=52	=52	=52	=52	=52	=52	=52
1r	.	1r	.	8cL	.	8eL	.
.	.	.	.	8BJ	.	8dJ	.
.	.	.	.	4c	.	4e	.
.	.	.	.	4B	.	4d	.
.	.	.	.	4c	.	4e	.
=53	=53	=53	=53	=53	=53	=53	=53
1r	.	1r	.	4d	.	4d	.
.	.	.	.	4B	.	4.g	-ca-
.	.	.	.	4c	.	.	.
.	.	.	.	.	.	8a	.
.	.	.	.	4d	.	4b	.
!!LO:LB:g=original
=54	=54	=54	=54	=54	=54	=54	=54
1r	.	1r	.	2e	-ta	8ccL	.
.	.	.	.	.	.	8bJ	.
.	.	.	.	.	.	4cc	.
.	.	.	.	4.d	mun-	2dd	-ta
.	.	.	.	8c	.	.	.
=55	=55	=55	=55	=55	=55	=55	=55
1r	.	1r	.	8BL	.	8ddL	mun-
.	.	.	.	8AJ	.	8cc	.
.	.	.	.	4d	.	8b	.
.	.	.	.	.	.	8aJ	.
.	.	.	.	4G	.	4.b	.
.	.	.	.	4D	.	.	.
.	.	.	.	.	.	8a	.
=56	=56	=56	=56	=56	=56	=56	=56
1r	.	1r	.	4.G	.	8bL	.
.	.	.	.	.	.	8ccJ	.
.	.	.	.	.	.	2b	.
.	.	.	.	8A	.	.	.
.	.	.	.	4B	.	.	.
.	.	.	.	4c	.	8aL	.
.	.	.	.	.	.	8gJ	.
=57	=57	=57	=57	=57	=57	=57	=57
1r	.	1r	.	2A	.	4.f#i	.
.	.	.	.	.	.	8e	.
.	.	.	.	2G	-di,	2g	-di,
=58	=58	=58	=58	=58	=58	=58	=58
4.G	pec-	1r	.	4r	.	1r	.
.	.	.	.	4.g	pec-	.	.
8F	.	.	.	.	.	.	.
8EL	.	.	.	.	.	.	.
8DJ	.	.	.	8fL	.	.	.
4G	.	.	.	8e	.	.	.
.	.	.	.	8dJ	.	.	.
=59	=59	=59	=59	=59	=59	=59	=59
2C	-ca-	1r	.	4g	.	1r	.
.	.	.	.	2c	-ca-	.	.
4E	.	.	.	.	.	.	.
4F	.	.	.	[4d	.	.	.
=60	=60	=60	=60	=60	=60	=60	=60
4.D	.	1r	.	8d]L	.	1r	.
.	.	.	.	8c	.	.	.
.	.	.	.	8B	.	.	.
8C	.	.	.	8AJ	.	.	.
8BBL	.	.	.	4.d	.	.	.
8AAJ	.	.	.	.	.	.	.
[4D	.	.	.	.	.	.	.
.	.	.	.	8e	.	.	.
!!LO:LB:g=original
=61	=61	=61	=61	=61	=61	=61	=61
4D]	.	1r	.	4f	.	1r	.
4G	.	.	.	2e	.	.	.
4C	.	.	.	.	.	.	.
4E	.	.	.	[4c	.	.	.
=62	=62	=62	=62	=62	=62	=62	=62
2D	-ta,	1r	.	4c]	.	2r	.
.	.	.	.	4B	.	.	.
4.C	pec-	.	.	2c	-ta,	4r	.
.	.	.	.	.	.	[4cc	pec-
8D	.	.	.	.	.	.	.
=63	=63	=63	=63	=63	=63	=63	=63
4E	.	1r	.	4r	.	8cc]L	.
.	.	.	.	.	.	8b	.
4.F	-ca-	.	.	4.c	pec-	8a	.
.	.	.	.	.	.	8gJ	.
.	.	.	.	.	.	4.cc	-ca-
8G	.	.	.	8BL	.	.	.
4A	.	.	.	8A	.	.	.
.	.	.	.	8GJ	.	8b	.
=64	=64	=64	=64	=64	=64	=64	=64
4E	.	1r	.	4.c	-ca-	4g	.
4F	.	.	.	.	.	4cc	.
.	.	.	.	8A	.	.	.
4G	.	.	.	4G	.	4b	.
4F	.	.	.	4A	.	[4a	.
=65	=65	=65	=65	=65	=65	=65	=65
2G	.	1r	.	2B-j	.	4a]	.
.	.	.	.	.	.	4g	.
2D	-ta	.	.	4.A	.	2a	-ta
.	.	.	.	8Bny	.	.	.
=66	=66	=66	=66	=66	=66	=66	=66
1r	.	1r	.	4c	.	4r	.
.	.	.	.	4d	.	2a	mun-
.	.	.	.	4.c	.	.	.
.	.	.	.	.	.	8gL	.
.	.	.	.	8A	.	8fJ	.
=67	=67	=67	=67	=67	=67	=67	=67
2r	.	1r	.	4B	.	4g	.
.	.	.	.	4c	.	4a	.
4r	.	.	.	2d	.	4d	.
[4D	mun-	.	.	.	.	[4f	.
!!LO:PB:g=original
=68	=68	=68	=68	=68	=68	=68	=68
4D]	.	1r	.	2A	-ta	4f]	.
8CL	.	.	.	.	.	8eL	.
8BBJ	.	.	.	.	.	8dJ	.
4C	.	.	.	2r	.	4e	.
4D	.	.	.	.	.	4f#j	.
=69	=69	=69	=69	=69	=69	=69	=69
2GG	-di:	1r	.	4r	.	2g	-di,
.	.	.	.	2G	mun-	.	.
2r	.	.	.	.	.	2r	.
.	.	.	.	8FL	.	.	.
.	.	.	.	8EJ	.	.	.
=70	=70	=70	=70	=70	=70	=70	=70
1r	.	1r	.	4F	.	4r	.
.	.	.	.	4G	.	2g	mun-
.	.	.	.	4C	.	.	.
.	.	.	.	4G	.	8fL	.
.	.	.	.	.	.	8eJ	.
=71	=71	=71	=71	=71	=71	=71	=71
2r	.	1r	.	4A	.	4f	.
.	.	.	.	4B	.	4g	.
4r	.	.	.	4c	.	2c	-di:
[4C	mi-	.	.	[4e	.	.	.
=72	=72	=72	=72	=72	=72	=72	=72
4C]	.	1r	.	4e]	.	1r	.
8BBL	.	.	.	8dL	.	.	.
8AAJ	.	.	.	8cJ	.	.	.
4BB	.	.	.	4d	.	.	.
4C	.	.	.	4e	.	.	.
=73	=73	=73	=73	=73	=73	=73	=73
4.F	-se-	1r	.	2c	-di:	4r	.
*	*	*	*	*	*	*	*Xedit
.	.	.	.	.	.	2cc	mi-
8G	.	.	.	.	.	.	.
2A	.	.	.	4r	.	.	.
*	*	*	*	*	*Xedit	*	*
.	.	.	.	4c	mi-	8bL	.
.	.	.	.	.	.	8aJ	.
!!LO:LB:g=original
=74	=74	=74	=74	=74	=74	=74	=74
2G	-re-	1r	.	4d	.	4b	.
.	.	.	.	4e	.	4cc	.
4.F	.	.	.	[2f	-se-	[2a	-se-
8E	.	.	.	.	.	.	.
=75	=75	=75	=75	=75	=75	=75	=75
4D	.	1r	.	4f]	.	4a]	.
4C	.	.	.	4e	.	4.cc	-re-
4AA	.	.	.	4f	.	.	.
.	.	.	.	.	.	8bL	.
4BB	.	.	.	[4g	-re-	8a	.
.	.	.	.	.	.	8gJ	.
=76	=76	=76	=76	=76	=76	=76	=76
4C	.	1r	.	4g]	.	2a	.
4D	.	.	.	4f	.	.	.
4.E	.	.	.	4g	.	4.g	.
.	.	.	.	4G	.	.	.
8D	.	.	.	.	.	8f	.
=77	=77	=77	=77	=77	=77	=77	=77
4C	.	1r	.	4A	.	4e	.
4BB	.	.	.	2B	.	2d	.
2GG	.	.	.	.	.	.	.
.	.	.	.	8AL	.	4B	.
.	.	.	.	8GJ	.	.	.
=78	=78	=78	=78	=78	=78	=78	=78
2D	-re	1r	.	2F#i	-re	2A	-re
*	*	*	*	*	*edit	*	*
2r	.	.	.	8GL	no-	4r	.
.	.	.	.	8A	.	.	.
.	.	.	.	8B	.	[4G	no-
.	.	.	.	8cJ	.	.	.
=79	=79	=79	=79	=79	=79	=79	=79
1r	.	1r	.	4d	.	8G]L	.
.	.	.	.	.	.	8A	.
.	.	.	.	4e	.	8B	.
.	.	.	.	.	.	8cJ	.
.	.	.	.	4.f	.	8dL	.
.	.	.	.	.	.	8e	.
.	.	.	.	.	.	8f	.
.	.	.	.	8e	.	8gJ	.
!!LO:LB:g=original
=80	=80	=80	=80	=80	=80	=80	=80
1r	.	1r	.	4f	.	4a	.
.	.	.	.	4g	.	4b	.
.	.	.	.	4e	.	4cc	.
.	.	.	.	4f	.	[4dd	.
=81	=81	=81	=81	=81	=81	=81	=81
1r	.	1r	.	4d	.	8dd]L	.
.	.	.	.	.	.	8cc	.
.	.	.	.	2g	-bis,	8b	.
.	.	.	.	.	.	8aJ	.
.	.	.	.	.	.	4.b	.
*	*	*	*	*	*Xedit	*	*
.	.	.	.	[4G	no-	.	.
.	.	.	.	.	.	8a	.
=82	=82	=82	=82	=82	=82	=82	=82
1r	.	1r	.	8G]L	.	8gL	.
.	.	.	.	8AJ	.	8fJ	.
.	.	.	.	4B	.	4.g	.
.	.	.	.	4.c	.	.	.
.	.	.	.	.	.	8fL	.
.	.	.	.	.	.	8e	.
.	.	.	.	8B	.	8dJ	.
=83	=83	=83	=83	=83	=83	=83	=83
4C	no-	1r	.	4c	.	4e	.
2G	.	.	.	4d	.	2d	.
.	.	.	.	4B	.	.	.
4C	.	.	.	4c	.	[4g	.
=84	=84	=84	=84	=84	=84	=84	=84
2D	.	1r	.	4A	.	4g]	.
.	.	.	.	4d	.	4f#i	.
4.E	.	.	.	[2Gl	-bis.	[2gl	-bis.
8D	.	.	.	.	.	.	.
=85	=85	=85	=85	=85	=85	=85	=85
4BB	.	1r	.	1G]	.	1g]	.
4C	.	.	.	.	.	.	.
2GGl	-bis.	.	.	.	.	.	.
!!LO:LB:g=original
=86||	=86||	=86||	=86||	=86||	=86||	=86||	=86||
*>C	*>C	*>C	*>C	*>C	*>C	*>C	*>C
*M2/2	*	*M2/2	*	*M2/2	*	*M2/2	*
*met(C|)	*	*met(C|)	*	*met(C|)	*	*met(C|)	*
!!section: Agnus III
*	*Xedit	*	*	*	*	*	*
[1GG	A-	2.G	A-	1r	.	1r	.
.	.	8FL	.	.	.	.	.
.	.	8EJ	.	.	.	.	.
=87	=87	=87	=87	=87	=87	=87	=87
1GG_	.	4D	.	1r	.	1r	.
.	.	4E	.	.	.	.	.
.	.	4D	.	.	.	.	.
.	.	[4G	-gnus	.	.	.	.
=88	=88	=88	=88	=88	=88	=88	=88
1GG_	.	8G]L	.	1r	.	1r	.
.	.	8A	.	.	.	.	.
.	.	8B	.	.	.	.	.
.	.	8cJ	.	.	.	.	.
.	.	8dL	.	.	.	.	.
.	.	8eJ	.	.	.	.	.
.	.	[4d	De-	.	.	.	.
=89	=89	=89	=89	=89	=89	=89	=89
1GG]	.	4d]	.	4r	.	1r	.
.	.	4c	.	2c	A-	.	.
.	.	2d	.	.	.	.	.
.	.	.	.	4B	.	.	.
=90	=90	=90	=90	=90	=90	=90	=90
*lig	*	*	*	*	*	*	*
[1C	-gnus	2G	-i,	4c	.	1r	.
.	.	.	.	4.e	-gnus	.	.
.	.	2r	.	.	.	.	.
.	.	.	.	8fL	.	.	.
.	.	.	.	8g	.	.	.
.	.	.	.	8aJ	.	.	.
=91	=91	=91	=91	=91	=91	=91	=91
1C]	.	1r	.	4.g	De-	1r	.
.	.	.	.	8f	.	.	.
.	.	.	.	4e	.	.	.
.	.	.	.	8dL	.	.	.
.	.	.	.	8cJ	.	.	.
!!LO:LB:g=original
=92	=92	=92	=92	=92	=92	=92	=92
[1D	.	1r	.	4B	.	1r	.
.	.	.	.	4.d	.	.	.
.	.	.	.	8cL	.	.	.
.	.	.	.	8B	.	.	.
.	.	.	.	8AJ	.	.	.
=93	=93	=93	=93	=93	=93	=93	=93
1D]	.	1r	.	4B	.	4r	.
*Xlig	*	*	*	*	*	*	*
.	.	.	.	4c	.	2c	A-
.	.	.	.	2d	.	.	.
.	.	.	.	.	.	4B	.
=94	=94	=94	=94	=94	=94	=94	=94
*lig	*	*	*	*	*	*	*
[1C	De-	1r	.	2G	-i,	4.c	.
.	.	.	.	.	.	8d	.
.	.	.	.	2r	.	8eL	.
.	.	.	.	.	.	8fJ	.
.	.	.	.	.	.	4g	.
=95	=95	=95	=95	=95	=95	=95	=95
1C]	.	1r	.	1r	.	4a	.
.	.	.	.	.	.	2g	.
.	.	.	.	.	.	8fL	.
.	.	.	.	.	.	8eJ	.
=96	=96	=96	=96	=96	=96	=96	=96
[1BB	.	1r	.	1r	.	4d	-gnus
.	.	.	.	.	.	4.g	De-
.	.	.	.	.	.	8a	.
.	.	.	.	.	.	[4b	.
=97	=97	=97	=97	=97	=97	=97	=97
1BB]	.	1r	.	1r	.	4b]	.
*Xlig	*	*	*	*	*	*	*
.	.	.	.	.	.	8aL	.
.	.	.	.	.	.	8gJ	.
.	.	.	.	.	.	8aL	.
.	.	.	.	.	.	8g	.
.	.	.	.	.	.	8f	.
.	.	.	.	.	.	8eJ	.
!!LO:PB:g=original
=98	=98	=98	=98	=98	=98	=98	=98
*lig	*	*	*	*	*	*	*
1AA	-i,	4r	.	1r	.	4f	.
.	.	2G	qui	.	.	4g	.
.	.	.	.	.	.	2a	.
.	.	4F#j	.	.	.	.	.
=99	=99	=99	=99	=99	=99	=99	=99
1BB	.	4.G	tol-	1r	.	2d	-i,
.	.	8A	.	.	.	.	.
.	.	8BL	.	.	.	2r	.
.	.	8cJ	.	.	.	.	.
.	.	[4d	.	.	.	.	.
=100	=100	=100	=100	=100	=100	=100	=100
[1GG	.	8dL]	.	1r	.	1r	.
.	.	8c	.	.	.	.	.
.	.	8B	.	.	.	.	.
.	.	8AJ	.	.	.	.	.
.	.	4B	.	.	.	.	.
.	.	[4G	.	.	.	.	.
=101	=101	=101	=101	=101	=101	=101	=101
1GG]	.	4G]	.	4r	.	1r	.
*Xlig	*	*	*	*	*	*	*
.	.	8FL	.	2c	qui	.	.
.	.	8EJ	.	.	.	.	.
.	.	2D	-lis	.	.	.	.
.	.	.	.	4B	.	.	.
=102	=102	=102	=102	=102	=102	=102	=102
*	*	*lig	*	*	*	*	*
1r	.	1C	pec-	4.c	tol-	1r	.
.	.	.	.	8d	.	.	.
.	.	.	.	8eL	.	.	.
.	.	.	.	8d	.	.	.
.	.	.	.	8c	.	.	.
.	.	.	.	8BJ	.	.	.
=103	=103	=103	=103	=103	=103	=103	=103
1r	.	[1F	.	2A	.	1r	.
.	.	.	.	4D	-lis	.	.
*	*	*	*	*	*edit	*	*
.	.	.	.	[4d	pec-	.	.
!!LO:LB:g=original
=104	=104	=104	=104	=104	=104	=104	=104
1r	.	2F]	.	8d]L	.	1r	.
*	*	*Xlig	*	*	*	*	*
.	.	.	.	8c	.	.	.
.	.	.	.	8B	.	.	.
.	.	.	.	8AJ	.	.	.
.	.	[2G	-ca-	2B	-ca-	.	.
=105	=105	=105	=105	=105	=105	=105	=105
1r	.	2G]	.	4E	-ta	1r	.
.	.	.	.	4e	mun-	.	.
.	.	2F	-ta	4f	.	.	.
.	.	.	.	8eL	.	.	.
.	.	.	.	8dJ	.	.	.
=106	=106	=106	=106	=106	=106	=106	=106
1r	.	1E	mun-	4c	.	4r	.
.	.	.	.	4d	.	2d	qui
.	.	.	.	2e	.	.	.
.	.	.	.	.	.	4c#i	.
=107	=107	=107	=107	=107	=107	=107	=107
1r	.	1D	-di,	2A	-di,	8dL	tol-
.	.	.	.	.	.	8e	.
.	.	.	.	.	.	8f	.
.	.	.	.	.	.	8gJ	.
.	.	.	.	2r	.	4a	.
.	.	.	.	.	.	4b	.
=108	=108	=108	=108	=108	=108	=108	=108
1r	.	1r	.	1e	qui	4g	-lis
*	*	*	*	*	*	*	*edit
.	.	.	.	.	.	4cc	pec-
.	.	.	.	.	.	4b	.
.	.	.	.	.	.	[4cc	.
=109	=109	=109	=109	=109	=109	=109	=109
1r	.	1r	.	2c	tol-	8cc]L	.
.	.	.	.	.	.	8b	.
.	.	.	.	.	.	8a	.
.	.	.	.	.	.	8gJ	.
.	.	.	.	2d	-lis	4f	.
.	.	.	.	.	.	[4a	.
!!LO:LB:g=original
=110	=110	=110	=110	=110	=110	=110	=110
1r	.	1r	.	2c	pec-	8a]L	.
.	.	.	.	.	.	8gJ	.
.	.	.	.	.	.	4e	.
.	.	.	.	2B	-ca-	4d	-ca-
.	.	.	.	.	.	[4g	.
=111	=111	=111	=111	=111	=111	=111	=111
1r	.	2r	.	1A	.	4g]	.
.	.	.	.	.	.	8f#iL	.
.	.	.	.	.	.	8eJ	.
*	*	*	*edit	*	*	*	*
.	.	2c	qui	.	.	2f#i	.
=112	=112	=112	=112	=112	=112	=112	=112
*	*edit	*	*	*	*	*	*
1E	qui	4.B	tol-	1G	-ta,	1g	-ta
.	.	8G	.	.	.	.	.
.	.	4B	.	.	.	.	.
.	.	[4c	.	.	.	.	.
=113	=113	=113	=113	=113	=113	=113	=113
2C	tol-	8c]L	.	1r	.	1r	.
.	.	8B	.	.	.	.	.
.	.	8A	.	.	.	.	.
.	.	8GJ	.	.	.	.	.
2D	-lis	4F	-lis	.	.	.	.
.	.	[4A	pec-	.	.	.	.
=114	=114	=114	=114	=114	=114	=114	=114
2C	pec-	8A]L	.	1r	.	1r	.
.	.	8GJ	.	.	.	.	.
.	.	4E	.	.	.	.	.
2BB	-ca-	4D	-ca-	.	.	.	.
.	.	[4G	.	.	.	.	.
=115	=115	=115	=115	=115	=115	=115	=115
*	*	*	*	*	*	*	*Xedit
1AA	.	4G]	.	1c	pec-	1a	pec-
.	.	8F#iL	.	.	.	.	.
.	.	8EJ	.	.	.	.	.
.	.	2F#i	.	.	.	.	.
!!LO:LB:g=original
=116	=116	=116	=116	=116	=116	=116	=116
1GG	.	1G	-ta	2B	-ca-	2d	-ca-
.	.	.	.	2G	.	[2g	.
=117	=117	=117	=117	=117	=117	=117	=117
1D	.	1r	.	1A	.	2g]	.
.	.	.	.	.	.	2f#i	.
=118	=118	=118	=118	=118	=118	=118	=118
1GG	-ta	2d	mun-	2G	-ta	2g	-ta
.	.	2B	.	2d	mun-	2r	.
=119	=119	=119	=119	=119	=119	=119	=119
1r	.	1A	.	2e	.	1cc	mun-
.	.	.	.	2f	.	.	.
=120	=120	=120	=120	=120	=120	=120	=120
2r	.	1G	.	4.g	.	2b	.
.	.	.	.	8f	.	.	.
[2G	mun-	.	.	2d	-di,	2g	.
=121	=121	=121	=121	=121	=121	=121	=121
2G]	.	2D	-di,	1r	.	1a	.
2F	.	4r	.	.	.	.	.
.	.	4A	mun-	.	.	.	.
=122	=122	=122	=122	=122	=122	=122	=122
2E	.	4B	.	2e	mun-	2g	.
.	.	4c	.	.	.	.	.
2D	.	2d	.	4f	.	2f	.
.	.	.	.	[4d	.	.	.
!!LO:PB:g=original
=123	=123	=123	=123	=123	=123	=123	=123
2G	.	2B	.	4d]	.	2g	-di,
.	.	.	.	4g	.	.	.
2A	.	[2A	.	4f	.	4r	.
*	*	*	*	*	*	*	*edit
.	.	.	.	[4e	.	[4c	mun-
=124	=124	=124	=124	=124	=124	=124	=124
4F	.	2A]	.	8e]L	.	4c]	.
.	.	.	.	8dJ	.	.	.
4D	.	.	.	4d	.	4f	.
2E	.	2G	.	4B	.	4.g	.
.	.	.	.	4c	.	.	.
.	.	.	.	.	.	8e	.
=125	=125	=125	=125	=125	=125	=125	=125
1D	-di,	1A	-di,	2d	-di,	2f	.
.	.	.	.	2r	.	2f	-di,
=126	=126	=126	=126	=126	=126	=126	=126
1r	.	1r	.	2G	pec-	2g	pec-
.	.	.	.	[2c	-ca-	4.e	-ca-
.	.	.	.	.	.	8f	.
=127	=127	=127	=127	=127	=127	=127	=127
1r	.	1r	.	4c]	.	4g	.
.	.	.	.	4c	-ta	4a	-ta
.	.	.	.	4d	mun-	4b	.
.	.	.	.	4c	.	[4a	mun-
=128	=128	=128	=128	=128	=128	=128	=128
1r	.	1r	.	2B	-di,	4a]	.
.	.	.	.	.	.	4g	.
.	.	.	.	2A	pec-	4.f	.
.	.	.	.	.	.	8d	.
=129	=129	=129	=129	=129	=129	=129	=129
2C	pec-	1r	.	2.c	-ca-	2e	.
[2F	-ca-	.	.	.	.	4A	-di,
.	.	.	.	4c	-ta	[4a	mun-
!!LO:LB:g=original
=130	=130	=130	=130	=130	=130	=130	=130
4F]	.	1r	.	4.d	mun-	8a]L	.
.	.	.	.	.	.	8gJ	.
4F	-ta	.	.	.	.	4f	.
.	.	.	.	8c	.	.	.
4G	mun-	.	.	4B	.	4e	.
4F	.	.	.	[4A	.	[4d	.
=131	=131	=131	=131	=131	=131	=131	=131
2E	.	1r	.	4A]	.	4d]	.
.	.	.	.	4G	.	4c#i	.
2D	-di,	.	.	2A	-di,	2d	-di,
=132	=132	=132	=132	=132	=132	=132	=132
2r	.	2B	pec-	1r	.	1r	.
2E	pec-	4.G	-ca-	.	.	.	.
.	.	8A	.	.	.	.	.
=133	=133	=133	=133	=133	=133	=133	=133
2.C	-ca-	4G	.	1r	.	1r	.
.	.	4F	.	.	.	.	.
.	.	4E	.	.	.	.	.
4D	.	4D	.	.	.	.	.
=134	=134	=134	=134	=134	=134	=134	=134
4C	.	4E	.	2e	pec-	1r	.
4BB	.	2G	.	.	.	.	.
2AA	.	.	.	2c	-ca-	.	.
.	.	4F#i	.	.	.	.	.
=135	=135	=135	=135	=135	=135	=135	=135
2GG	-ta	2G	-ta	4B	.	2b	pec-
.	.	.	.	2d	.	.	.
2r	.	2r	.	.	.	[2g	-ca-
.	.	.	.	4c	.	.	.
=136	=136	=136	=136	=136	=136	=136	=136
1r	.	1r	.	4B	.	4g]	.
.	.	.	.	4A	.	4a	.
.	.	.	.	4B	.	4g	.
.	.	.	.	[4d	.	4f	.
!!LO:LB:g=original
=137	=137	=137	=137	=137	=137	=137	=137
1r	.	4r	.	4d]	.	2e	-ta
.	.	4A	mun-	4c#i	.	.	.
.	.	4.B	.	2d	-ta	4.d	mun-
.	.	8A	.	.	.	8c	.
=138	=138	=138	=138	=138	=138	=138	=138
4r	.	4G	.	1r	.	4B	.
4D	mun-	4F	.	.	.	4A	.
4.E	.	2G	-di,	.	.	4G	.
.	.	.	.	.	.	4B	.
8D	.	.	.	.	.	.	.
=139	=139	=139	=139	=139	=139	=139	=139
4C	.	4A	mun-	2r	.	4c	.
4BB	.	4B	.	.	.	4d	.
2C	-di,	4A	.	4r	.	8eL	.
.	.	.	.	.	.	8d	.
.	.	[4G	.	[4e	mun-	8c	.
.	.	.	.	.	.	8BJ	.
=140	=140	=140	=140	=140	=140	=140	=140
4r	.	4G]	.	4e]	.	2A	.
4D	mun-	4F	.	4d	.	.	.
*	*	*	*	*	*	*	*Xedit
4.E	.	2G	-di:	4c	.	2G	-di,
.	.	.	.	4B	.	.	.
8D	.	.	.	.	.	.	.
=141	=141	=141	=141	=141	=141	=141	=141
*	*	*	*	*	*	*	*edit
4C	.	1r	.	4c	.	4A	mun-
4BB	.	.	.	2d	.	4B	.
2C	.	.	.	.	.	4A	.
.	.	.	.	[4c	.	[4G	.
=142	=142	=142	=142	=142	=142	=142	=142
2D	.	2r	.	4c]	.	4G]	.
.	.	.	.	4B	.	4F#i	.
*	*	*	*Xedit	*	*	*	*
2C	-di:	2G	do-	2c	-di:	2G	-di:
!!LO:LB:g=original
=143	=143	=143	=143	=143	=143	=143	=143
*	*	*	*	*	*Xedit	*	*
4.C	do-	2.c	-na	2.G	do-	1r	.
8D	.	.	.	.	.	.	.
4E	.	.	.	.	.	.	.
4F	-na	4c	no-	[4A	-na	.	.
=144	=144	=144	=144	=144	=144	=144	=144
4D	no-	4d	.	2A]	.	2r	.
4F	.	4c	-bis	.	.	.	.
*	*	*	*edit	*	*	*	*Xedit
4G	.	2B	pa-	4B	.	2g	do-
4E	-bis	.	.	4G	.	.	.
=145	=145	=145	=145	=145	=145	=145	=145
*	*	*	*	*	*edit	*	*
4.F	pa-	2A	-cem,	4.A	no-	2.cc	-na
8G	.	.	.	8B	.	.	.
2A	.	2r	.	8cL	.	.	.
.	.	.	.	8d	.	.	.
.	.	.	.	8e	.	4cc	no-
.	.	.	.	8fJ	.	.	.
=146	=146	=146	=146	=146	=146	=146	=146
2G	-cem,	2B	do-	1g	-bis	4.dd	.
.	.	.	.	.	.	8cc	-bis
*	*	*	*	*	*	*	*edit
4r	.	2G	-na	.	.	2b	pa-
*	*Xedit	*	*	*	*	*	*
4G	do-	.	.	.	.	.	.
=147	=147	=147	=147	=147	=147	=147	=147
4.D	.	4r	.	2f	pa-	2a	-cem,
.	.	4A	no-	.	.	.	.
8C	.	.	.	.	.	.	.
8BBL	.	4.G	.	2d	.	2b	do-
8AAJ	.	.	.	.	.	.	.
4GG	.	.	.	.	.	.	.
.	.	8F	.	.	.	.	.
=148	=148	=148	=148	=148	=148	=148	=148
2C	-na	2E	.	2e	-cem,	2g	-na
4r	.	2D	-bis	4r	.	2a	no-
*lig	*	*	*	*	*	*	*
[4D	no-	.	.	[4A	do-	.	.
!!LO:PB:g=original
=149	=149	=149	=149	=149	=149	=149	=149
4D]	.	4d	pa-	4A]	.	4f	.
2E	.	4B	.	2G	-na	4g	.
*Xlig	*	*	*	*	*	*	*
.	.	4c	.	.	.	4e	.
*	*	*	*	*	*Xedit	*	*
4D	-bis	[4d	.	4A	no-	4f	.
=150	=150	=150	=150	=150	=150	=150	=150
1r	.	4d]	.	8BL	.	4d	-bis
.	.	.	.	8cJ	.	.	.
.	.	4B	.	4d	.	2g	pa-
.	.	2A	.	4e	-bis	.	.
.	.	.	.	4f	.	4cc	.
=151	=151	=151	=151	=151	=151	=151	=151
*	*	*	*	*	*edit	*	*
2r	.	2G	-cem.	4.g	pa-	4b	.
.	.	.	.	.	.	2dd	.
.	.	.	.	8f	.	.	.
*	*edit	*	*Xedit	*	*	*	*
4G	pa-	4B	pa-	4d	.	.	.
4E	.	4c	.	4e	.	4g	.
=152	=152	=152	=152	=152	=152	=152	=152
4D	.	4.d	.	4.f	.	4f	.
4.F	.	.	.	.	.	2a	.
.	.	8c	.	8e	.	.	.
.	.	4A	.	2c	.	.	.
8E	.	.	.	.	.	.	.
4C	.	4c	.	.	.	4e	.
=153	=153	=153	=153	=153	=153	=153	=153
4G	.	4B	.	4d	.	4d	.
4E	.	4G	.	4c	.	2g	.
2D	-cem,	2A	.	2d	.	.	.
.	.	.	.	.	.	4f#i	.
=154	=154	=154	=154	=154	=154	=154	=154
8GGL	pa-	2G	-cem,	2d	-cem,	4g	-cem,
8AA	.	.	.	.	.	.	.
8BB	.	.	.	.	.	2d	pa-
8CJ	.	.	.	.	.	.	.
4D	.	2r	.	4r	.	.	.
4E	.	.	.	4d	pa-	8cL	.
.	.	.	.	.	.	8BJ	.
!!LO:LB:g=original
=155	=155	=155	=155	=155	=155	=155	=155
4F	.	1r	.	4c	.	4A	.
4G	.	.	.	4B	.	4G	-cem,
4A	.	.	.	4A	.	4r	.
*	*	*	*	*	*	*	*Xedit
4B	.	.	.	4d	.	4G	pa-
=156	=156	=156	=156	=156	=156	=156	=156
4A	.	1r	.	4c	.	4A	.
2G	.	.	.	4B	.	4B	.
.	.	.	.	2A	-cem,	4.c	.
4F#i	.	.	.	.	.	.	.
.	.	.	.	.	.	16BLL	.
.	.	.	.	.	.	16AJJ	.
=157	=157	=157	=157	=157	=157	=157	=157
2G	-cem,	1r	.	4r	.	8GL	.
.	.	.	.	.	.	8A	.
*	*	*	*	*	*Xedit	*	*
.	.	.	.	2G	pa-	8B	.
.	.	.	.	.	.	8cJ	.
4r	.	.	.	.	.	4d	.
*	*Xedit	*	*	*	*	*	*
4G	pa-	.	.	8FL	.	4e	.
.	.	.	.	8EJ	.	.	.
=158	=158	=158	=158	=158	=158	=158	=158
4F	.	1r	.	4D	.	4f	.
4E	.	.	.	4c	.	4g	.
4D	.	.	.	4d	.	4a	.
4G	.	.	.	4B	.	4b	.
=159	=159	=159	=159	=159	=159	=159	=159
4F	.	1r	.	4c	.	4a	.
4E	.	.	.	4G	.	2g	.
2D	.	.	.	2A	.	.	.
.	.	.	.	.	.	4f#i	.
=160	=160	=160	=160	=160	=160	=160	=160
1GGl	-cem.	1Gl	[pa]–<i>cem.</i>	1Gl	-cem.	1gl	-cem.
==	==	==	==	==	==	==	==
*-	*-	*-	*-	*-	*-	*-	*-
!!!system-decoration: [*]
!!!RDF**kern: j = editorial accidental, optional, paren up
!!!RDF**kern: i = editorial accidental
!!!RDF**kern: l = terminal breve
!!!PTL: Gaspar van Weerbeke: Collected Works. I. Masses, Part 1
!!!ISBN: 978-1-59551-515-5
!!!PPR: American Institute of Musicology
!!!PC#: Corpus Mensurabilis Musicae 106/I.1
!!!PDT: 2016
!!!PED: Pavanello, Agnese
!!!YEC: Copyright 2014, Pavanello, Agnese
!!!YEM: CC-BY-NC 4.0 (https://creativecommons.org/licenses/by-nc/4.0/legalcode)
!!!EED: Mair-Gruber, Roland
!!!EEV: 2021/11/07
!!!title: @{OPR} &mdash; @{OTL}
!!!muse2ps: C^@{COM}^i2I150v90,90,90,120c122z18l2700t130
